kp-team/img/queen.svg

<svg width="319" height="28" viewBox="0 0 319 28" fill="none" xmlns="http://www.w3.org/2000/svg">
<path fill-rule="evenodd" clip-rule="evenodd" d="M295.838 14.8788C296.492 14.8788 298.017 15.0205 298.017 17.4271C298.017 19.8337 296.565 19.9753 295.838 19.9753H291.192V14.8788H295.838ZM291.192 13.6048V12.26C291.192 10.278 291.845 9.85327 293.879 9.85327H295.257C295.911 9.85327 297.291 9.9948 297.291 11.7644C297.291 13.6756 295.911 13.6756 295.257 13.6756L291.192 13.6048ZM291.192 8.22531C288.506 8.22531 287.126 9.57019 287.126 12.1892V21.4617H298.381C299.833 21.4617 302.01 20.1168 302.01 17.4978C302.01 15.7991 301.139 14.6665 300.195 14.0295C300.849 13.5339 301.358 12.6846 301.358 11.4812C301.358 8.93314 299.179 8.15454 297.727 8.15454H291.192V8.22531Z" fill="#131313"/>
<path fill-rule="evenodd" clip-rule="evenodd" d="M308.039 17.131C308.039 14.7244 309.418 14.5827 310.071 14.5827H314.138V19.6792H310.071C309.345 19.6792 308.039 19.6084 308.039 17.131ZM303.972 17.2725C303.972 19.9623 306.151 21.2364 307.603 21.2364H318.204V11.9639C318.204 9.27411 316.824 8 314.138 8H306.006V9.55719H311.451C313.485 9.55719 314.138 9.98194 314.138 11.9639V13.3086H307.603C306.078 13.3086 303.972 14.5827 303.972 17.2725Z" fill="#131313"/>
<path fill-rule="evenodd" clip-rule="evenodd" d="M195.131 21.5324L185.982 12.1889L192.516 5.6062H189.613L183.295 12.0474V5.6062H180.826C179.519 5.6062 178.357 6.66787 178.357 8.01275V21.6031H180.826C182.206 21.6031 183.295 20.5413 183.295 19.1964V14.5247L189.902 21.6031H195.131V21.5324Z" fill="#131313"/>
<path fill-rule="evenodd" clip-rule="evenodd" d="M244.286 17.5686C244.286 19.5506 243.633 19.9753 241.6 19.9753H238.913C236.881 19.9753 236.227 19.5506 236.227 17.5686V12.26C236.227 10.2781 236.881 9.8533 238.913 9.8533H241.6C243.633 9.8533 244.286 10.2781 244.286 12.26V17.5686ZM244.286 8.22534H236.155C233.468 8.22534 232.088 9.57022 232.088 12.1891V17.4979C232.088 20.1876 233.468 21.4617 236.155 21.4617H244.286C246.973 21.4617 248.353 20.1169 248.353 17.4979V12.1891C248.353 9.57022 246.973 8.22534 244.286 8.22534Z" fill="#131313"/>
<path fill-rule="evenodd" clip-rule="evenodd" d="M207.836 17.5686C207.836 19.5506 207.182 19.9753 205.149 19.9753H202.463C200.429 19.9753 199.776 19.5506 199.776 17.5686V12.26C199.776 10.2781 200.429 9.8533 202.463 9.8533H205.149C207.182 9.8533 207.836 10.2781 207.836 12.26V17.5686ZM207.836 8.22534H199.703C197.018 8.22534 195.638 9.57022 195.638 12.1891V17.4979C195.638 20.1876 197.018 21.4617 199.703 21.4617H207.836C210.523 21.4617 211.902 20.1169 211.902 17.4979V12.1891C211.902 9.57022 210.596 8.22534 207.836 8.22534Z" fill="#131313"/>
<path fill-rule="evenodd" clip-rule="evenodd" d="M223.665 14.8789H218.946V12.1891C218.946 10.2073 219.598 9.78256 221.632 9.78256H223.665C224.319 9.78256 225.699 9.9241 225.699 12.3308C225.699 14.8081 224.319 14.8789 223.665 14.8789ZM218.874 16.2238H226.061C227.514 16.2238 229.692 14.8789 229.692 12.26C229.692 9.57026 227.586 8.29614 226.061 8.29614H218.874C216.186 8.29614 214.807 9.64102 214.807 12.26V21.6033H216.84C217.929 21.6033 218.874 20.6832 218.874 19.6214V16.2238Z" fill="#131313"/>
<path fill-rule="evenodd" clip-rule="evenodd" d="M256.339 8.22534C253.652 8.22534 252.273 9.57022 252.273 12.1891V18.8427C252.273 19.7629 251.692 19.9753 250.894 19.9753V21.5325H254.306C255.395 21.5325 256.267 20.6831 256.339 19.6213V12.26C256.339 10.2781 256.993 9.8533 259.025 9.8533H262.656V21.6033H264.689C265.778 21.6033 266.723 20.6831 266.723 19.6213V8.29611L256.339 8.22534Z" fill="#131313"/>
<path fill-rule="evenodd" clip-rule="evenodd" d="M274.057 12.26C274.057 10.2781 274.71 9.85333 276.743 9.85333H278.994C279.648 9.85333 281.028 9.99487 281.028 12.4016C281.028 14.8081 279.648 14.9497 278.994 14.9497H274.057V12.26ZM281.535 16.2238C282.987 16.2238 285.166 14.8789 285.166 12.26C285.166 9.57026 282.987 8.29614 281.535 8.29614H274.057C271.37 8.29614 269.99 9.64102 269.99 12.26V17.5687C269.99 20.2584 271.37 21.5325 274.057 21.5325H283.06V19.9753H276.743C274.71 19.9753 274.057 19.5506 274.057 17.5687V16.2238H281.535Z" fill="#131313"/>
<path fill-rule="evenodd" clip-rule="evenodd" d="M137.563 18.0542C137.563 15.6475 138.943 15.506 139.596 15.506H144.243V20.6023H139.596C138.943 20.6023 137.563 20.5315 137.563 18.0542ZM133.497 18.1958C133.497 20.8855 135.603 22.1596 137.128 22.1596H148.309V12.887C148.309 10.1972 146.93 8.9231 144.243 8.9231H135.53V10.4804H141.557C143.59 10.4804 144.243 10.905 144.243 12.887V14.2319H137.128C135.675 14.2319 133.497 15.506 133.497 18.1958Z" fill="#131313"/>
<path fill-rule="evenodd" clip-rule="evenodd" d="M114.836 22.1596L107.212 14.3734L112.658 8.85229H110.262L104.961 14.1611V8.85229H102.929C101.839 8.85229 100.895 9.77257 100.895 10.8342V14.1611L95.5949 8.85229H93.1987L98.6445 14.3734L91.0205 22.1596H95.377L100.895 16.2138V22.1596H102.929C104.018 22.1596 104.961 21.2393 104.961 20.1777V16.2845L110.48 22.2304L114.836 22.1596Z" fill="#131313"/>
<path fill-rule="evenodd" clip-rule="evenodd" d="M128.198 8.85229C127.108 8.85229 126.164 9.77257 126.164 10.8342V14.1611H119.847V8.85229H117.814C116.725 8.85229 115.781 9.77257 115.781 10.8342V22.1596H117.814C118.903 22.1596 119.847 21.2393 119.847 20.1777V15.5059H126.164V22.1596H128.198C129.359 22.1596 130.231 21.2393 130.231 20.1777V8.85229H128.198Z" fill="#131313"/>
<path fill-rule="evenodd" clip-rule="evenodd" d="M70.6896 8.85229C69.6004 8.85229 68.6565 9.77257 68.6565 10.8342V14.1611H61.7586V8.85229H59.7255C58.6364 8.85229 57.6924 9.77257 57.6924 10.8342V22.1596H59.7255C60.8146 22.1596 61.7586 21.2393 61.7586 20.1777V15.5059H68.6565V22.1596H70.6896C71.7787 22.1596 72.7226 21.2393 72.7226 20.1777V8.85229H70.6896Z" fill="#131313"/>
<path fill-rule="evenodd" clip-rule="evenodd" d="M49.3432 20.3191C46.9471 20.3191 46.0758 19.7528 46.0758 17.4169V11.0464C46.0758 8.63988 46.8745 8.14436 49.3432 8.14436H55.8054V6.30396H46.0758C42.8084 6.30396 41.2109 7.93205 41.2109 11.1172V17.4876C41.2109 20.6729 42.8084 22.3009 46.0758 22.3009H55.8054V20.4606H49.3432V20.3191Z" fill="#131313"/>
<path fill-rule="evenodd" clip-rule="evenodd" d="M80.1291 12.887C80.1291 10.905 80.7824 10.4804 82.8155 10.4804H85.6473C86.3008 10.4804 87.6804 10.622 87.6804 13.0285C87.6804 15.4352 86.3008 15.5767 85.6473 15.5767H80.0564V12.887H80.1291ZM88.1161 16.8509C89.5682 16.8509 91.7466 15.506 91.7466 12.887C91.7466 10.1972 89.5682 8.9231 88.1161 8.9231H80.0564C77.3698 8.9231 75.9902 10.268 75.9902 12.887V18.1958C75.9902 20.8855 77.3698 22.1596 80.0564 22.1596H89.6409V20.6023H82.7429C80.7098 20.6023 80.0564 20.1777 80.0564 18.1958V16.8509H88.1161Z" fill="#131313"/>
<path fill-rule="evenodd" clip-rule="evenodd" d="M162.251 15.5059H156.95C156.297 15.5059 154.917 15.3644 154.917 12.9577C154.917 10.5511 156.297 10.4096 156.95 10.4096H162.251V15.5059ZM154.409 8.85226C152.957 8.85226 150.778 10.1971 150.778 12.8161C150.778 15.5059 152.884 16.78 154.409 16.78H157.168L151.65 22.0888H155.498L160.653 16.78H162.323V22.0888H164.356C165.446 22.0888 166.389 21.1685 166.389 20.1069V8.78149H154.409V8.85226Z" fill="#131313"/>
<path fill-rule="evenodd" clip-rule="evenodd" d="M17.6938 22.0934C13.7699 23.509 13.199 23.509 9.27507 22.0934C8.98958 17.8463 6.13582 13.3162 2.92524 10.6973C5.85033 11.2635 8.41888 12.3253 10.3453 14.4488C10.4166 11.4759 12.1288 7.58281 13.413 5.74247C14.6974 7.51203 16.4096 11.4759 16.4809 14.4488C18.4073 12.3253 21.0472 11.1928 23.9007 10.6973C20.8326 13.3162 17.9793 17.8463 17.6938 22.0934ZM24.8286 1H2.06905C0.927523 1 0 1.92018 0 3.05271V25.8448C0 26.9774 0.927523 27.8975 2.06905 27.8975H24.8286C25.9697 27.8975 26.8977 26.9774 26.8977 25.8448V3.05271C26.8977 1.92018 25.9697 1 24.8286 1Z" fill="#131313"/>
</svg>

<svg width="319" height="28" fill="none" xmlns="http://www.w3.org/2000/svg"><path fill-rule="evenodd" clip-rule="evenodd" d="M295.838 14.879c.654 0 2.179.142 2.179 2.548 0 2.407-1.452 2.548-2.179 2.548h-4.646V14.88h4.646zm-4.646-1.274V12.26c0-1.982.653-2.407 2.687-2.407h1.378c.654 0 2.034.142 2.034 1.911 0 1.912-1.38 1.912-2.034 1.912l-4.065-.071zm0-5.38c-2.686 0-4.066 1.345-4.066 3.964v9.273h11.255c1.452 0 3.629-1.345 3.629-3.964 0-1.699-.871-2.832-1.815-3.469.654-.495 1.163-1.344 1.163-2.548 0-2.548-2.179-3.326-3.631-3.326h-6.535v.07zm16.847 8.906c0-2.407 1.379-2.548 2.032-2.548h4.067v5.096h-4.067c-.726 0-2.032-.07-2.032-2.548zm-4.067.142c0 2.69 2.179 3.963 3.631 3.963h10.601v-9.272c0-2.69-1.38-3.964-4.066-3.964h-8.132v1.557h5.445c2.034 0 2.687.425 2.687 2.407v1.345h-6.535c-1.525 0-3.631 1.274-3.631 3.964zm-108.841 4.259l-9.149-9.343 6.534-6.583h-2.903l-6.318 6.441v-6.44h-2.469c-1.307 0-2.469 1.06-2.469 2.406v13.59h2.469c1.38 0 2.469-1.062 2.469-2.407v-4.671l6.607 7.078h5.229v-.07zm49.155-3.963c0 1.982-.653 2.406-2.686 2.406h-2.687c-2.032 0-2.686-.424-2.686-2.406V12.26c0-1.982.654-2.407 2.686-2.407h2.687c2.033 0 2.686.425 2.686 2.407v5.309zm0-9.344h-8.131c-2.687 0-4.067 1.345-4.067 3.964v5.309c0 2.69 1.38 3.964 4.067 3.964h8.131c2.687 0 4.067-1.345 4.067-3.964v-5.309c0-2.619-1.38-3.964-4.067-3.964zm-36.45 9.344c0 1.982-.654 2.406-2.687 2.406h-2.686c-2.034 0-2.687-.424-2.687-2.406V12.26c0-1.982.653-2.407 2.687-2.407h2.686c2.033 0 2.687.425 2.687 2.407v5.309zm0-9.344h-8.133c-2.685 0-4.065 1.345-4.065 3.964v5.309c0 2.69 1.38 3.964 4.065 3.964h8.133c2.687 0 4.066-1.345 4.066-3.964v-5.309c0-2.619-1.306-3.964-4.066-3.964zm15.829 6.654h-4.719v-2.69c0-1.982.652-2.406 2.686-2.406h2.033c.654 0 2.034.141 2.034 2.548 0 2.477-1.38 2.548-2.034 2.548zm-4.791 1.345h7.187c1.453 0 3.631-1.345 3.631-3.964 0-2.69-2.106-3.964-3.631-3.964h-7.187c-2.688 0-4.067 1.345-4.067 3.964v9.343h2.033c1.089 0 2.034-.92 2.034-1.982v-3.397zm37.465-7.999c-2.687 0-4.066 1.345-4.066 3.964v6.654c0 .92-.581 1.132-1.379 1.132v1.557h3.412a2.04 2.04 0 002.033-1.91V12.26c0-1.982.654-2.407 2.686-2.407h3.631v11.75h2.033c1.089 0 2.034-.92 2.034-1.982V8.296l-10.384-.07zm17.718 4.035c0-1.982.653-2.407 2.686-2.407h2.251c.654 0 2.034.142 2.034 2.549 0 2.406-1.38 2.548-2.034 2.548h-4.937v-2.69zm7.478 3.964c1.452 0 3.631-1.345 3.631-3.964 0-2.69-2.179-3.964-3.631-3.964h-7.478c-2.687 0-4.067 1.345-4.067 3.964v5.309c0 2.69 1.38 3.963 4.067 3.963h9.003v-1.557h-6.317c-2.033 0-2.686-.424-2.686-2.406v-1.345h7.478zm-143.972 1.83c0-2.406 1.38-2.548 2.033-2.548h4.647v5.096h-4.647c-.653 0-2.033-.07-2.033-2.548zm-4.066.142c0 2.69 2.106 3.964 3.631 3.964h11.181v-9.273c0-2.69-1.379-3.964-4.066-3.964h-8.713v1.557h6.027c2.033 0 2.686.425 2.686 2.407v1.345h-7.115c-1.453 0-3.631 1.274-3.631 3.964zm-18.661 3.964l-7.624-7.787 5.446-5.52h-2.396l-5.301 5.308V8.852h-2.032c-1.09 0-2.034.92-2.034 1.982v3.327l-5.3-5.309h-2.396l5.445 5.521-7.624 7.787h4.357l5.518-5.946v5.946h2.034c1.089 0 2.032-.92 2.032-1.982v-3.893l5.519 5.945 4.356-.07zm13.362-13.308c-1.09 0-2.034.92-2.034 1.982v3.327h-6.317V8.852h-2.033c-1.089 0-2.033.92-2.033 1.982V22.16h2.033c1.089 0 2.033-.92 2.033-1.982v-4.672h6.317v6.654h2.034c1.161 0 2.033-.92 2.033-1.982V8.852h-2.033zm-57.508 0c-1.09 0-2.034.92-2.034 1.982v3.327H61.76V8.852h-2.034c-1.089 0-2.033.92-2.033 1.982V22.16h2.033c1.09 0 2.034-.92 2.034-1.982v-4.672h6.897v6.654h2.034c1.089 0 2.033-.92 2.033-1.982V8.852H70.69zM49.343 20.32c-2.396 0-3.267-.567-3.267-2.903v-6.37c0-2.407.798-2.903 3.267-2.903h6.462v-1.84h-9.73c-3.267 0-4.864 1.628-4.864 4.813v6.37c0 3.186 1.597 4.814 4.865 4.814h9.73v-1.84h-6.463v-.142zm30.787-7.433c0-1.982.652-2.407 2.686-2.407h2.831c.654 0 2.033.142 2.033 2.548 0 2.407-1.38 2.549-2.033 2.549h-5.59v-2.69h.072zm7.986 3.964c1.452 0 3.63-1.345 3.63-3.964 0-2.69-2.178-3.964-3.63-3.964h-8.06c-2.686 0-4.066 1.345-4.066 3.964v5.309c0 2.69 1.38 3.964 4.066 3.964h9.585v-1.558h-6.898c-2.033 0-2.687-.424-2.687-2.406V16.85h8.06zm74.135-1.345h-5.301c-.653 0-2.033-.142-2.033-2.548 0-2.407 1.38-2.548 2.033-2.548h5.301v5.096zm-7.842-6.654c-1.452 0-3.631 1.345-3.631 3.964 0 2.69 2.106 3.964 3.631 3.964h2.759l-5.518 5.309h3.848l5.155-5.309h1.67v5.309h2.033c1.09 0 2.033-.92 2.033-1.982V8.78h-11.98v.071zM17.694 22.093c-3.924 1.416-4.495 1.416-8.419 0-.285-4.247-3.14-8.777-6.35-11.396 2.925.567 5.494 1.628 7.42 3.752.072-2.973 1.784-6.866 3.068-8.707 1.284 1.77 2.997 5.734 3.068 8.707 1.926-2.124 4.566-3.256 7.42-3.752-3.068 2.62-5.922 7.15-6.207 11.396zM24.829 1H2.069C.928 1 0 1.92 0 3.053v22.792c0 1.132.928 2.053 2.069 2.053h22.76c1.14 0 2.069-.92 2.069-2.053V3.053A2.063 2.063 0 0024.828 1z" fill="#131313"/></svg>
